X: 36319
T: Seamus Shannon's
R: jig
M: 6/8
K: Dmajor
DFA dcA|AGE AGE|DFA dcA|AGE CEC|
A,DD EFG|AdB cAc|dcd AFA|GEA D3:|
DFA fed|dcA GFG|AGA DdB|cBc GEC|
A,DD EFG|AdB cAc|dcd AFA|GEA D3:|

